!!!id: 18xx:2037
!!!COM: Stefani, Józef
!!!OTL: Bitwa pod Ostrołęką
!!!PDT:
!!!SMS-siglum: PL-Wtm
!!!SMS-shelfmark: R 1416
!!!NIFC-rismID: 1001116002
!!!URL-scan: http://repozytorium.nifc.pl/skany/pl-wtm-nut--r1416--1419
!!!ONB-nifc: UWAGA: utwory w zbiorze: 1. Bitwa pod Ostrołęką, 2. Marsz połączonych Polaków, 3. Marsz Podchorążych, 4. Polonez. Każdy utwór ma własną sygnaturę (R 1416-1419). Uwaga: Pomiędzy pięcioliniami wpisane objaśnienia programowe
!!!SMS-variant:
!!!SMS-altvar:
**kern	**kern	**dynam
*part1	*part1	*part1
*staff2	*staff1	*
*I"[Fortepian]	*I"[Fortepian]	*
*clefF4	*clefG2	*
*k[f#]	*k[f#]	*
*M2/4	*M2/4	*
*>[A,B,B,C,C1,C,C2,D]	*>[A,B,B,C,C1,C,C2,D]	*
=1	=1	=1
*>A	*>A	*
!	!LO:TX:b:i:t=Trębacz Woysk Polskich daje znak do bitwy	!
8GG\L 8G	16g/LL	.
!	!LO:TX:a:i:t=Bitwa pod Ostrołęką d&colon; 26 Maja 1831 roku	!
.	16g/	.
8D\ 8G 8B	16g/	.
.	16g/JJ	.
8D\ 8G 8B	8g/L	.
8D\J 8G 8B	8e/J	.
=2	=2	=2
*rep	*	*
8GG\L 8G	16g/LL	.
.	16g/	.
8D\ 8G 8B	16g/	.
.	16g/JJ	.
8D\ 8G 8B	8g/L	.
8D\J 8G 8B	8d/J	.
*Xrep	*	*
=3	=3	=3
*rep	*	*
8GG\L 8G	16g/LL	.
.	16g/	.
8D\ 8G 8B	16g/	.
.	16g/JJ	.
8D\ 8G 8B	8g/L	.
8D\J 8G 8B	8d/J	.
*Xrep	*	*
=4	=4	=4
*rep	*	*
8GG\L 8G	2dd\	.
8D\ 8G 8B	.	.
8D\ 8G 8B	.	.
8D\J 8G 8B	.	.
*Xrep	*	*
=5	=5	=5
8DD/ 8D	16dd\LL	.
.	16dd\	.
8D\L 8F# 8A	16dd\	.
.	16dd\JJ	.
8D\ 8F# 8A	8ff#\L	.
8D\J 8F# 8A	8dd\J	.
=6	=6	=6
*rep	*	*
8DD/ 8D	16dd\LL	.
.	16dd\	.
8D\L 8F# 8A	16dd\	.
.	16dd\JJ	.
8D\ 8F# 8A	8ff#\L	.
8D\J 8F# 8A	8dd\J	.
*Xrep	*	*
=7	=7	=7
*rep	*	*
8DD/ 8D	16dd\LL	.
.	16dd\	.
8D\L 8F# 8A	16dd\	.
.	16dd\JJ	.
8D\ 8F# 8A	8a/L	.
8D\J 8F# 8A	8f#/J	.
*Xrep	*	*
=8	=8	=8
*rep	*	*
8DD/ 8D	2d/	.
8D\L 8F# 8A	.	.
8D\ 8F# 8A	.	.
8D\J 8F# 8A	.	.
*Xrep	*	*
=9||	=9||	=9||
*tremolo	*	*
8D#X\L 8F# 8A 8B	16b\LL	.
.	16b\	.
8D#\ 8F# 8A 8B	16b\	.
.	16b\JJ	.
8D#\ 8F# 8A 8B	8b\L	.
8D#\J 8F# 8A 8B	8b\J	.
=10	=10	=10
8E\L 8G 8B	16b\LL	.
.	16b\	.
8E\ 8G 8B	16b\	.
.	16b\JJ	.
8E\ 8G 8B	8b\L	.
8E\J 8G 8B	8b\J	.
=11	=11	=11
8D#X\L 8F# 8A 8B	16b\LL	.
.	16b\	.
8D#\ 8F# 8A 8B	16b\	.
.	16b\JJ	.
8D#\ 8F# 8A 8B	8b\L	.
8D#\J 8F# 8A 8B	8b\J	.
=12	=12	=12
8E\L 8G 8B	2ee\	.
8E\ 8G 8B	.	.
8E\ 8G 8B	.	.
8E\J 8G 8B	.	.
=13	=13	=13
8C#X\L 8E 8G 8A	16a/LL	.
.	16a/	.
8C#\ 8E 8G 8A	16a/	.
.	16a/JJ	.
8C#\ 8E 8G 8A	8a/L	.
8C#\J 8E 8G 8A	8a/J	.
=14	=14	=14
8D\L 8F# 8A	16a/LL	.
.	16a/	.
8D\ 8F# 8A	16a/	.
.	16a/JJ	.
8D\ 8F# 8A	8a/L	.
8D\J 8F# 8A	8a/J	.
!!LO:LB:g=original
=15	=15	=15
8D\L 8F# 8A 8cn	16dd\LL	.
.	16dd\	.
8D\ 8F# 8A 8c	16dd\	.
.	16dd\JJ	.
8D\ 8F# 8A 8c	8a/L	.
8D\J 8F# 8A 8c	8f#/J	.
*Xtremolo	*	*
=16	=16	=16
8G\L 8B	2d/ 2g	.
8G\J 8B	.	.
4G\ 4B	.	.
=17||	=17||	=17||
*k[]	*k[]	*
!	!LO:TX:b:i:t=Huk dział	!
16C/LL 16E	4e:/ 4g: 4cc:	.
16G/	.	.
16C/ 16E	.	.
16G/JJ	.	.
*rep	*	*
16C/LL 16E	4CC</	.
16G/	.	.
16C/ 16E	.	.
16G/JJ	.	.
*Xrep	*	*
=18	=18	=18
16C/LL 16E	4g:/ 4cc: 4ee:	.
16G/	.	.
16C/ 16E	.	.
16G/JJ	.	.
*rep	*	*
16C/LL 16E	4EE</	.
16G/	.	.
16C/ 16E	.	.
16G/JJ	.	.
*Xrep	*	*
=19	=19	=19
16C/LL 16E	4cc:\ 4ee: 4gg:	.
16G/	.	.
16C/ 16E	.	.
16G/JJ	.	.
*rep	*	*
16C/LL 16E	4GG</	.
16G/	.	.
16C/ 16E	.	.
16G/JJ	.	.
*Xrep	*	*
=20	=20	=20
16C/LL 16E	4EE<\	.
16G/	.	.
16C/ 16E	.	.
16G/JJ	.	.
*rep	*	*
16C/LL 16E	4CC<\	.
16G/	.	.
16C/ 16E	.	.
16G/JJ	.	.
*Xrep	*	*
=21||	=21||	=21||
16BB/LL 16D 16F	8GGG</	.
16G/	.	.
!	!LO:TX:b:i:t=Polacy z bagnetem uderzają na Moskali	!
16BB/ 16D 16F	16fff\LL	.
16G/JJ	16eee\JJ	.
*rep	*	*
16BB/LL 16D 16F	16eee\LL	.
16G/	16ddd\	.
16BB/ 16D 16F	16ddd\	.
16G/JJ	16ccc\JJ	.
*Xrep	*	*
=22	=22	=22
16BB/LL 16D 16F	16ccc\LL	.
16G/	16bb\	.
16BB/ 16D 16F	16bb\	.
16G/JJ	16aa\JJ	.
*rep	*	*
16BB/LL 16D 16F	16aa\LL	.
16G/	16gg\	.
16BB/ 16D 16F	16gg\	.
16G/JJ	16ff\JJ	.
*Xrep	*	*
=23	=23	=23
16BB/LL 16D 16F	16ff\LL	.
16G/	16ee\	.
16BB/ 16D 16F	16ee\	.
16G/JJ	16dd\JJ	.
*rep	*	*
16BB/LL 16D 16F	16dd\LL	.
16G/	16cc\	.
16BB/ 16D 16F	16cc\	.
16G/JJ	16b\JJ	.
*Xrep	*	*
=24	=24	=24
16BB/LL 16D 16F	16b/LL	.
16G/	16a/	.
16BB/ 16D 16F	16a/	.
16G/JJ	16g/JJ	.
*rep	*	*
16BB/LL 16D 16F	16g/LL	.
16G/	16f/	.
16BB/ 16D 16F	16e/	.
16G/JJ	16d/JJ	.
*Xrep	*	*
=25	=25	=25
!	!LO:TX:t=P:problem:mixed beam	!
4C\ 4E	8c/L	.
.	16ee\L 16ccc	.
.	16cc\JJ	.
8E\L 8e	16ee\LL 16ccc	.
.	16cc\	.
8D\J 8d	16ee\ 16ccc	.
.	16cc\JJ	.
=26	=26	=26
*	*tremolo	*
8C\L 8c	16ee\LL 16ccc	.
.	16cc\	.
!LO:TX:b:i:t=proźba Moskali o pardon	!	!
8BB\ 8B	16ee\ 16ccc	.
.	16cc\	.
8AA\ 8A	16ee\ 16ccc	.
.	16cc\	.
8GG#X\J 8G#X	16ee\ 16ccc	.
.	16cc\JJ	.
=27	=27	=27
!	!LO:TX:b:i:t=Bój wspólny	!
4AA\ 4A	16ee\LL 16aa 16ccc	.
.	16cc\	.
.	16ee\ 16aa 16ccc	.
.	16cc\	.
8C\L 8c	16ee\ 16aa 16ccc	.
.	16cc\	.
8BB\J 8B	16ee\ 16aa 16ccc	.
.	16cc\JJ	.
=28	=28	=28
8AA\L 8A	16ee\LL 16aa 16ccc	.
.	16cc\	.
8GGn\ 8Gn	16ee\ 16aa 16ccc	.
.	16cc\	.
8FF\ 8F	16ee\ 16aa 16ccc	.
.	16cc\	.
8EE\J 8E	16ee\ 16aa 16ccc	.
.	16cc\JJ	.
!!LO:LB:g=original
=29	=29	=29
*tremolo	*	*
!LO:TX:t=P:problem:mixed beam	!	!
8FF/L	16aa\LL 16ccc 16ddd	.
.	16dd\	.
8F\	16aa\ 16ccc 16ddd	.
.	16dd\	.
8FF/	16aa\ 16ccc 16ddd	.
.	16dd\	.
8F\J	16aa\ 16ccc 16ddd	.
.	16dd\JJ	.
=30	=30	=30
!LO:TX:t=P:problem:mixed beam	!	!
8FF#X/L	16dd#X\LL 16aa 16ccc 16ddd#X	.
.	16dd#X\	.
8F#X\	16dd#\ 16aa 16ccc 16ddd#	.
.	16dd#X\	.
8FF#/	16dd#\ 16aa 16ccc 16ddd#	.
.	16dd#X\	.
8F#\J	16dd#\ 16aa 16ccc 16ddd#	.
.	16dd#X\JJ	.
=31	=31	=31
!LO:TX:t=P:problem:mixed beam	!	!
8GG/L	16gg\LL 16ccc 16eee	.
.	16ee\	.
8G\	16gg\ 16ccc 16eee	.
.	16ee\	.
8GG/	16gg\ 16ccc 16eee	.
.	16ee\	.
8G\J	16gg\ 16ccc 16eee	.
.	16ee\JJ	.
=32	=32	=32
!LO:TX:t=P:problem:mixed beam	!	!
8GG/L	16gg\LL 16bb 16ddd	.
.	16dd\	.
8G\	16gg\ 16bb 16ddd	.
.	16dd\	.
8GG/	16gg\ 16bb 16ddd	.
.	16dd\	.
8G\J	16gg\ 16bb 16ddd	.
.	16dd\JJ	.
*Xtremolo	*	*
=33	=33	=33
4C/	16ee\LL 16gg 16ccc	.
.	16cc\	.
.	16ee\ 16gg 16ccc	.
.	16cc\	.
8E\L 8e	16ee\ 16gg 16ccc	.
.	16cc\	.
8D\J 8d	16ee\ 16gg 16ccc	.
.	16cc\JJ	.
=34	=34	=34
8C\L 8c	16ee\LL 16gg 16ccc	.
.	16cc\	.
8BB\ 8B	16ee\ 16gg 16ccc	.
.	16cc\	.
8AA\ 8A	16ee\ 16gg 16ccc	.
.	16cc\	.
8GG#X\J 8G#X	16ee\ 16gg 16ccc	.
.	16cc\JJ	.
=35	=35	=35
4AA\ 4A	16ee\LL 16aa 16ccc	.
.	16cc\	.
.	16ee\ 16aa 16ccc	.
.	16cc\	.
8C\L 8c	16ee\ 16aa 16ccc	.
.	16cc\	.
8BB\J 8B	16ee\ 16aa 16ccc	.
.	16cc\JJ	.
=36	=36	=36
8AA\L 8A	16ee\LL 16aa 16ccc	.
.	16cc\	.
8GGn\ 8Gn	16ee\ 16aa 16ccc	.
.	16cc\	.
8FF\ 8F	16ee\ 16aa 16ccc	.
.	16cc\	.
8EE\J 8E	16ee\ 16aa 16ccc	.
.	16cc\JJ	.
=37	=37	=37
*tremolo	*	*
!LO:TX:t=P:problem:mixed beam	!	!
8FF/L	16aa\LL 16ccc 16ddd	.
.	16dd\	.
8F\	16aa\ 16ccc 16ddd	.
.	16dd\	.
8FF/	16aa\ 16ccc 16ddd	.
.	16dd\	.
8F\J	16aa\ 16ccc 16ddd	.
.	16dd\JJ	.
=38	=38	=38
!LO:TX:t=P:problem:mixed beam	!	!
8FF#X/L	16aa\LL 16ccc 16ddd#X	.
.	16dd#X\	.
8F#X\	16aa\ 16ccc 16ddd#	.
.	16dd#X\	.
8FF#/	16aa\ 16ccc 16ddd#	.
.	16dd#X\	.
8F#\J	16aa\ 16ccc 16ddd#	.
.	16dd#X\JJ	.
=39	=39	=39
!LO:TX:t=P:problem:mixed beam	!	!
8GG/L	16gg\LL 16ccc 16eee	.
.	16ee\	.
8G\	16gg\ 16ccc 16eee	.
.	16ee\	.
8GG/	16gg\ 16ccc 16eee	.
.	16ee\	.
8G\J	16gg\ 16ccc 16eee	.
.	16ee\JJ	.
=40	=40	=40
!LO:TX:t=P:problem:mixed beam	!	!
8GG/L	16gg\LL 16bb 16ddd	.
.	16dd\	.
8G\	16gg\ 16bb 16ddd	.
.	16dd\	.
8GG/	16gg\ 16bb 16ddd	.
.	16dd\	.
8G\J	16gg\ 16bb 16ddd	.
.	16dd\JJ	.
*Xtremolo	*Xtremolo	*
=41	=41	=41
16CC/LL	2cc\ 2ee 2gg 2ccc	.
16C/	.	.
16CC/	.	.
16C/JJ	.	.
*rep	*	*
16CC/LL	.	.
16C/	.	.
16CC/	.	.
16C/JJ	.	.
*Xrep	*	*
=42	=42	=42
!	!LO:TX:a:t=1.	!
16CC/LL	2r	.
16C/	.	.
16CC/	.	.
16C/JJ	.	.
*rep	*	*
16CC/LL	.	.
16C/	.	.
16CC/	.	.
16C/JJ	.	.
*Xrep	*	*
=43	=43	=43
16CC/LL	4b:\ 4dd: 4ff: 4aa-X:	.
16C/	.	.
16CC/	.	.
16C/JJ	.	.
*rep	*	*
16CC/LL	4b:\ 4dd: 4ff: 4aa-:	.
16C/	.	.
16CC/	.	.
16C/JJ	.	.
*Xrep	*	*
=44	=44	=44
16CC/LL	4cc:\ 4ee-X: 4gg:	.
16C/	.	.
16CC/	.	.
16C/JJ	.	.
*rep	*	*
16CC/LL	4a-X:\ 4b: 4dd: 4ff:	.
16C/	.	.
16CC/	.	.
16C/JJ	.	.
*Xrep	*	*
=45	=45	=45
16CC/LL	4g:\ 4cc: 4ee-X:	.
16C/	.	.
16CC/	.	.
16C/JJ	.	.
*rep	*	*
16CC/LL	4f:\ 4a-X: 4b: 4dd:	.
16C/	.	.
16CC/	.	.
16C/JJ	.	.
*Xrep	*	*
!!LO:LB:g=original
=46	=46	=46
16CC/LL	4e-X:/ 4g: 4cc:	.
16C/	.	.
16CC/	.	.
16C/JJ	.	.
*rep	*	*
16CC/LL	4d:/ 4f: 4a-X: 4b:	.
16C/	.	.
16CC/	.	.
16C/JJ	.	.
*Xrep	*	*
=47	=47	=47
16CC/LL	2e-X:/ 2g: 2cc:	.
16C/	.	.
16CC/	.	.
16C/JJ	.	.
*rep	*	*
16CC/LL	.	.
16C/	.	.
16CC/	.	.
16C/JJ	.	.
*Xrep	*	*
=48	=48	=48
!	!LO:TX:a:t=1.	!
16CC/LL	2r	.
16C/	.	.
16CC/	.	.
16C/JJ	.	.
*rep	*	*
16CC/LL	.	.
16C/	.	.
16CC/	.	.
16C/JJ	.	.
*Xrep	*	*
=49	=49	=49
!	!LO:TX:b:t=De-cres=cen do et dimi nu en- do.:problem:dynamics with extention lines:ext=	!
!	!	!LO:HP:i:t=De-cres=cen do et dimi nu en- do.
16CC/LL	4B:/ 4d: 4f: 4a-X:	>
16C/	.	.
16CC/	.	.
16C/JJ	.	.
*rep	*	*
!	!LO:TX:a:i:t=Jak umierających	!
16CC/LL	4B:/ 4d: 4f: 4a-:	.
16C/	.	.
16CC/	.	.
16C/JJ	.	.
*Xrep	*	*
=50	=50	=50
16CC/LL	4c:/ 4e-X: 4g:	.
16C/	.	.
16CC/	.	.
16C/JJ	.	.
*rep	*	*
16CC/LL	4A-X:/ 4B: 4d: 4f:	.
16C/	.	.
16CC/	.	.
16C/JJ	.	.
*Xrep	*	*
=51	=51	=51
16CC\LL	4G<:/ 4c: 4e-X:	.
16C\	.	.
16CC\	.	.
16C\JJ	.	.
*rep	*	*
16CC\LL	4F<:/ 4A-X<: 4B<: 4d:	.
16C\	.	.
16CC\	.	.
16C\JJ	.	.
*Xrep	*	*
=52	=52	=52
*rep	*	*
16CC\LL	4E-X<:/ 4G<: 4c<:	.
16C\	.	.
16CC\	.	.
16C\JJ	.	.
*Xrep	*	*
*rep	*	*
16CC\LL	4D<:/ 4F<: 4A-X<: 4B<:	.
16C\	.	.
16CC\	.	.
16C\JJ	.	.
*Xrep	*	*
=53	=53	=53
*rep	*	*
16CC\LL	4E-X<:/ 4G<: 4c<:	.
16C\	.	.
16CC\	.	.
16C\JJ	.	.
*Xrep	*	*
*rep	*	*
16CC\LL	4r	.
16C\	.	.
16CC\	.	.
16C\JJ	.	.
*Xrep	*	*
=54	=54	=54
*rep	*	*
16CC\LL	2G<:/ 2c: 2e-X:	.
16C\	.	.
16CC\	.	.
16C\JJ	.	.
16CC\LL	.	.
16C\	.	.
16CC\	.	.
16C\JJ	.	.
*Xrep	*	*
=55	=55	=55
*rep	*	*
16CC\LL	2c:/ 2e-X: 2g:	.
16C\	.	.
16CC\	.	.
16C\JJ	.	.
16CC\LL	.	.
16C\	.	.
16CC\	.	.
16C\JJ	.	.
*Xrep	*	*
=56	=56	=56
*rep	*	*
16CC\LL	2G<:/ 2c: 2e-X:	.
16C\	.	.
16CC\	.	.
16C\JJ	.	.
16CC\LL	.	.
16C\	.	.
16CC\	.	.
16C\JJ	.	.
*Xrep	*	*
=57	=57	=57
*rep	*	*
16CC\LL	2E-X<:/ 2G<: 2c<:	.
16C\	.	.
16CC\	.	.
16C\JJ	.	.
16CC\LL	.	.
16C\	.	.
16CC\	.	.
16C\JJ	.	.
*Xrep	*	*
=58	=58	=58
4CC;<\ 4C	4E-X<;>/ 4G< 4c<	.
=59||	=59||	=59||
*M4/4	*M4/4	*
!	!LO:TX:b:i:t=Znak zwycięstwa Polaków	!
!	!LO:TUP:b:problem:klamra łukowa	!
4r	12g/L	.
.	12g/	.
.	12g/J	.
=60	=60	=60
1r	4cc/	.
*	*Xtuplet	*
!	!LO:TUP:problem:brak klamry:global	!
.	12g/L	.
.	12g/	.
.	12g/J	.
.	4cc/	.
.	12g/L	.
.	12g/	.
.	12g/J	.
=61	=61	=61
1r	8.cc/L	.
.	16cc/K	.
.	8.g/	.
.	16g/Jk	.
.	8.e/L	.
.	16e/K	.
.	8.c/	.
.	16c/Jk	.
=62	=62	=62
1r	4g/	.
.	12g/L	.
.	12g/	.
.	12g/J	.
.	4g/	.
.	4g/	.
=63	=63	=63
1r	2g/	.
.	2r	.
!!LO:LB:g=original
=64||	=64||	=64||
*>B	*>B	*
*M2/4	*M2/4	*
!	!LO:TX:i:t=Marsz	!
!	!LO:TX:b:i:t=Radość z otrzymania praw bitwy	!
8C\L 8E 8G	8ee\L 8gg	.
16C\L 16E 16G	16ee\L 16gg	.
!	!LO:TX:a:t=bis	!
16C\JJ 16E 16G	16ee\JJ 16gg	.
8C\L 8E 8G	8ee\L 8gg	.
8D#X\J 8F#X 8A	8dd#X\J 8ff#X	.
=65	=65	=65
!	!LO:TX:t=P:problem:t. 65 zapisany jako repetycja	!
8C\L 8E 8G	8ee\L 8gg	.
16C\L 16E 16G	16ee\L 16gg	.
16C\JJ 16E 16G	16ee\JJ 16gg	.
8C\L 8E 8G	8ee\L 8gg	.
8D#X\J 8F#X 8A	8dd#X\J 8ff#X	.
=66	=66	=66
8C\L 8E 8G	8ee\L 8gg	.
8C\ 8F#X 8A	8dd#X\ 8ff#X	.
8C\ 8E 8G	8ee\ 8gg	.
8C\J 8F# 8A	8dd#\J 8ff#	.
=67	=67	=67
8C\L 8E 8G	4ee\ 4gg	.
8C\J 8E 8G	.	.
4C\ 4E 4G	4ee\ 4ccc	.
=68	=68	=68
*tremolo	*	*
8d\L 8f	8dd\L	.
8G\	8dd\J	.
8d\ 8f	16dd\LL	.
.	16gg\	.
8G\J	16ff#X\	.
.	16gg\JJ	.
=69	=69	=69
8c\L 8e	8cc\L	.
8G\	8cc\J	.
8c\ 8e	16cc\LL	.
.	16ee\	.
8G\J	16dd#X\	.
.	16ee\JJ	.
*Xtremolo	*	*
=70	=70	=70
8G\L 8B	8dd\L	.
8D\J	8dd\J	.
8F#X\L 8A 8c	16dd\LL	.
.	16cc\	.
8D\J	16a\	.
.	16f#X\JJ	.
=71	=71	=71
!	!LO:TX:t=P:problem:takt zapisany poniżej	!
8G\L 8B	8g/L	.
8D\J	8g/J	.
4G\ 4B	4g/	.
=72:|!|:	=72:|!|:	=72:|!|:
*>C	*>C	*
*tremolo	*	*
8B\L 8d	8g/L	.
8G\	16g/L	.
.	16g/JJ	.
8B\ 8d	16g/LL	.
.	16a/	.
8G\J	16b/	.
.	16cc/JJ	.
=73	=73	=73
!	!LO:N:vis=16	!
8c\L 8e	8dd\L	.
!	!LO:N:vis=16	!
8G\	8ee\	.
8c\ 8e	8.ff\	.
8G\J	.	.
.	16dd\Jk	.
=74	=74	=74
8c\L 8e	8cc\L	.
8G\	16cc\L	.
.	16cc\JJ	.
8c\ 8e	16cc\LL	.
.	16dd\	.
8G\J	16ee\	.
.	16ff\JJ	.
=75	=75	=75
*rep	*	*
8c\L 8e	8gg\L	.
8G\	8ee\J	.
8c\ 8e	4ee\ 4ccc	.
8G\J	.	.
*Xrep	*	*
=76	=76	=76
8B\L 8d	8g/L	.
8G\	16g/L	.
.	16g/JJ	.
8B\ 8d	16g/LL	.
.	16a/	.
8G\J	16b/	.
.	16cc/JJ	.
=77	=77	=77
*rep	*	*
8B\L 8d	8dd\L	.
8G\	8ee\	.
8B\ 8d	8.ff\	.
8G\J	.	.
.	16dd\Jk	.
*Xrep	*	*
*Xtremolo	*	*
=78	=78	=78
8c\L 8e	8cc\L 8ee	.
8G\	8cc\J 8ee	.
8B\ 8f	8g/L 8dd	.
8G\J	8g/J 8dd	.
=79	=79	=79
!LO:TX:a:t=1mo	!LO:TX:a:t=1mo	!
*>C1	*>C1	*
8c\L	8e/L 8cc	.
8G\J	8e/J 8cc	.
4C/	4e/ 4cc	.
=80:|!	=80:|!	=80:|!
!LO:TX:a:t=2do	!LO:TX:a:t=2do	!
*>C2	*>C2	*
4c\ 4e	4cc\	.
4G\ 4d	4dd\ 4gg 4bb	.
=81	=81	=81
*>D	*>D	*
4c\ 4e	4cc\ 4ee 4gg 4ccc	.
4G\ 4d	4dd\ 4gg 4bb	.
=82	=82	=82
2C\ 2c	2cc\ 2ee 2gg 2ccc	.
=83	=83	=83
2GG/ 2G	2dd\ 2ff 2gg 2bb	.
=84	=84	=84
2CC;>/ 2C	2e;>/ 2g 2cc	.
!!LO:PB:g=original
==	==	==
*-	*-	*-
!!!system-decoration: {(s1,s2)}
!!!RDF**kern: < = below
!!!RDF**kern: > = above
!!!ENC: Marcin Jachim
!!!END: 2021-04-23
!!!ENC: Marta Chmielewska
!!!END: 2021-06-04
